X: 20242
T: Joe Derrane's
R: jig
M: 6/8
K: Bminor
|:~B3 BAF|AFE EFE|DFA def|afe dBA|
~B3 BAF|AFE EFE|DFA def|1 edB Bdc:|2 edB Bcd||
|:efe edB|AFF (d3|d)ef afa|b2f afa|
b3 ~a3|baf edB|def afe|1 dBA Bcd:|2 dBA Bdc||

